polaris-icons/icons/newicons/SendMajor.svg

<svg width="20" height="20" viewBox="0 0 20 20" fill="none" xmlns="http://www.w3.org/2000/svg">
<path fill-rule="evenodd" clip-rule="evenodd" d="M4.79767 9.65663L2.83414 4.28276C2.5276 3.44381 3.39102 2.65443 4.1992 3.03475L17.0772 9.09501C17.8429 9.45529 17.8428 10.5444 17.0772 10.9046L4.1992 16.9649C3.39101 17.3452 2.52759 16.5558 2.83413 15.7169L4.79767 10.343C4.87865 10.1214 4.87865 9.87826 4.79767 9.65663ZM6.20656 9.14184L4.66011 4.90944L13.8838 9.25H6.24331C6.2319 9.21374 6.21966 9.17768 6.20656 9.14184ZM6.2432 10.75C6.23183 10.7861 6.21962 10.8221 6.20656 10.8578L4.66011 15.0902L13.8831 10.75H6.2432Z" fill="black"/>
</svg>

<svg viewBox="0 0 20 20" fill="none" xmlns="http://www.w3.org/2000/svg"><path fill-rule="evenodd" clip-rule="evenodd" d="m4.798 9.657-1.964-5.374c-.306-.84.557-1.629 1.365-1.248l12.878 6.06a1 1 0 0 1 0 1.81l-12.878 6.06c-.808.38-1.671-.41-1.365-1.248l1.964-5.374a1 1 0 0 0 0-.686Zm1.409-.515-1.547-4.233 9.224 4.341h-7.64a2.507 2.507 0 0 0-.037-.108Zm.036 1.608a2.5 2.5 0 0 1-.036.108l-1.547 4.232 9.223-4.34h-7.64Z" fill="#5C5F62"/></svg>
